X: 173
T:Valse de Costebelle
R:Valse
N:
D:
O:France
Z:<anamnese@caramail.com>
M:3/4
L:1/4
Q:1/4=170
K:Bbmaj
"Gm"G2B | d3 | "Eb"e2g | "Gm"d3 | "F"ccB | A2c | "D"B2A | "Gm"G3 ::
"Gm"G3 | B3 | "F"Afc | A3 | "Bb" d3-|d3 | "C"cBc | "D"d3 | 
"Gm"G2B | d3 | "Eb"e2g | "F"f3 | ccB | A2c | "Bb"B2"D"A | "Gm"G3 |
"F"f/2c/2 A/2f/2 c/2A/2 | "Gm"GBd | "F" f/2c/2 A/2f/2 c/2A/2 | "Gm"G3 :|
<end>
<start>
